libs/ui/packages/crypto-icons/src/svg/XPM.svg

<svg width="24" height="24" viewBox="0 0 24 24" fill="none">
<path d="M18 10.9215C18 14.2388 15.4305 15.3668 13.2675 15.3668V16.2315H14.9363V17.403H13.2682V18.75H10.6583V17.403H9.063V16.2315H10.6552V15.3555C9.963 15.3555 6 15.1912 6 10.6807V5.25H8.59125V10.8885C8.59125 13.2427 10.6657 13.221 10.6657 13.221V5.25H13.2682V13.221C13.2682 13.221 15.4088 13.341 15.4088 10.8563V5.25H18V10.9215Z" fill="#FFD81B"/>
</svg>

<svg width="24" height="24" viewBox="0 0 24 24" fill="none"><path fill="#ffd81b" d="M18 10.922c0 3.317-2.57 4.445-4.732 4.445v.864h1.668v1.172h-1.668v1.347h-2.61v-1.347H9.063v-1.171h1.592v-.876C9.963 15.356 6 15.19 6 10.68V5.25h2.591v5.639c0 2.354 2.075 2.332 2.075 2.332V5.25h2.602v7.971s2.14.12 2.14-2.365V5.25H18z"/></svg>
